X:282
T:Sporting Days of Easter (reel), The
B:CRE2.281 (Laethanta Spraoi na Casca)
F:file ID: cre.2/282sport_d
Q:180
L:1/8
M:4/4
R:reel
K:G
"D modal"
d2cA GEEE|ABAG A4|d2cA GEEE|A2GE D4|
d2cA GEEE|ABAG A2Bd|d2cA GEEE|A2 GE D4||
c2cd efg2|eaag efge|c2cd efg2|abge d4|
c2cd efg2|eaag efg2|fged cAGc|Addd dfed||

%%%

